X: 10698
T: Down To Carlow
R: jig
M: 6/8
K: Adorian
|:A2 A A2 G|E2 F G3|A2 A A2 B|c2 d e2 d|
c2 A B2 G|E2 F G3|A2 A BAG|A3 A3:|
e2 g g3|e2 a a3|B2 B B2 A|G2 A B3|
e2 g g3|e2 a a3|BcB B2 G|A3 A3|
e2 g g3|e2 a a3|B2 B B2 A|G2 A B3|
e2 f g2 e|a2 f g3|B2 B BAG|A3 A3||

